rospo-dark/16x16/panel/indicator-sensors-disk.svg

<svg height="22" width="22" xmlns="http://www.w3.org/2000/svg"><path d="m6 4c-.554 0-1 .446-1 1v12c0 .554.446 1 1 1h10c .554 0 1-.446 1-1v-12c0-.554-.446-1-1-1zm5 2a4 4 0 0 1 4 4 4 4 0 0 1 -4 4h-4v-4a4 4 0 0 1 4-4zm0 2a2 2 0 0 0 -2 2 2 2 0 0 0 2 2 2 2 0 0 0 2-2 2 2 0 0 0 -2-2z" fill="#d3dae3"/></svg>

<svg xmlns="http://www.w3.org/2000/svg" width="22" height="22" version="1.1">
 <defs>
  <style id="current-color-scheme" type="text/css">
   .ColorScheme-Text { color:#d3dae3; } .ColorScheme-Highlight { color:#5294e2; }
  </style>
 </defs>
 <path style="fill:currentColor" class="ColorScheme-Text" d="M 6,4 C 5.446,4 5,4.446 5,5 V 17 C 5,17.554 5.446,18 6,18 H 16 C 16.554,18 17,17.554 17,17 V 5 C 17,4.446 16.554,4 16,4 Z M 11,6 A 4,4 0 0 1 15,10 4,4 0 0 1 11,14 H 7 V 10 A 4,4 0 0 1 11,6 Z M 11,8 A 2,2 0 0 0 9,10 2,2 0 0 0 11,12 2,2 0 0 0 13,10 2,2 0 0 0 11,8 Z"/>
</svg>
